src/assets/img/changelogg.svg

<?xml version="1.0" encoding="UTF-8" standalone="no"?>
<svg
   width="75"
   height="75"
   viewBox="0 0 75 75"
   fill="none"
   version="1.1"
   id="svg2"
   sodipodi:docname="changelogg.svg"
   inkscape:version="1.3.1 (9b9bdc1480, 2023-11-25, custom)"
   xmlns:inkscape="http://www.inkscape.org/namespaces/inkscape"
   xmlns:sodipodi="http://sodipodi.sourceforge.net/DTD/sodipodi-0.dtd"
   xmlns="http://www.w3.org/2000/svg"
   xmlns:svg="http://www.w3.org/2000/svg">
  <defs
     id="defs2" />
  <sodipodi:namedview
     id="namedview2"
     pagecolor="#ffffff"
     bordercolor="#000000"
     borderopacity="0.25"
     inkscape:showpageshadow="2"
     inkscape:pageopacity="0.0"
     inkscape:pagecheckerboard="0"
     inkscape:deskcolor="#d1d1d1"
     inkscape:zoom="15.786667"
     inkscape:cx="37.5"
     inkscape:cy="37.5"
     inkscape:window-width="2560"
     inkscape:window-height="1379"
     inkscape:window-x="0"
     inkscape:window-y="30"
     inkscape:window-maximized="1"
     inkscape:current-layer="svg2" />
  <rect
     width="75"
     height="75"
     rx="17.5279"
     fill="#111111"
     id="rect1" />
  <g
     id="g2"
     transform="translate(-2.3177)">
    <path
       d="m 41.482,31.5498 c 3.2653,0 5.8776,2.6849 5.8776,5.9502 0,3.2654 -2.6123,5.8777 -5.8776,5.8777 -3.338,0 -5.9503,-2.6123 -5.9503,-5.8777 0,-3.2653 2.6123,-5.9502 5.9503,-5.9502 z"
       fill="#00c88c"
       id="path1" />
    <path
       d="m 41.4822,12.6106 c 6.821,0 13.0614,2.83 17.5604,7.2564 l -5.7325,5.8776 c -3.0477,-3.0476 -7.2564,-4.9343 -11.8279,-4.9343 -9.2156,0 -16.6172,7.4741 -16.6172,16.6897 0,9.143 7.4016,16.6896 16.6172,16.6896 4.5715,0 8.7802,-1.9592 11.8279,-4.9343 l 5.7325,5.8051 c -4.499,4.5715 -10.7394,7.329 -17.5604,7.329 -13.7872,0 -24.8894,-11.1749 -24.8894,-24.8894 0,-13.7871 11.1022,-24.8894 24.8894,-24.8894 z"
       fill="#ffffff"
       id="path2" />
  </g>
</svg>

<svg width="75" height="75" viewBox="0 0 75 75" fill="none" xmlns="http://www.w3.org/2000/svg">
<rect width="75" height="75" rx="17.5279" fill="#111111"/>
<path d="M41.482 31.5498C44.7473 31.5498 47.3596 34.2347 47.3596 37.5C47.3596 40.7654 44.7473 43.3777 41.482 43.3777C38.144 43.3777 35.5317 40.7654 35.5317 37.5C35.5317 34.2347 38.144 31.5498 41.482 31.5498Z" fill="#00C88C"/>
<path d="M41.4822 12.6106C48.3032 12.6106 54.5436 15.4406 59.0426 19.867L53.3101 25.7446C50.2624 22.697 46.0537 20.8103 41.4822 20.8103C32.2666 20.8103 24.865 28.2844 24.865 37.5C24.865 46.643 32.2666 54.1896 41.4822 54.1896C46.0537 54.1896 50.2624 52.2304 53.3101 49.2553L59.0426 55.0604C54.5436 59.6319 48.3032 62.3894 41.4822 62.3894C27.695 62.3894 16.5928 51.2145 16.5928 37.5C16.5928 23.7129 27.695 12.6106 41.4822 12.6106Z" fill="white"/>
</svg>
